X: 13080
T: Fiollaigean
R: slip jig
M: 9/8
K: Dmixolydian
|:AAA DDD F2G|~A3 d3 dcA|c2A dcA G2c|AGE G2c AGE:|
|:DDD F2^c AGE|DDD F2c dcA|DDD F2G A2c|dAA A2G FDF:|

